dist/img/corp/common-icon2.svg

<svg width="51" height="50" viewBox="0 0 51 50" fill="none" xmlns="http://www.w3.org/2000/svg">
<path d="M23.0678 35.1257V39.355C23.0678 42.9383 19.7344 45.8341 15.6302 45.8341C11.5261 45.8341 8.17188 42.9383 8.17188 39.355V35.1257C8.17188 38.7091 11.5052 41.2507 15.6302 41.2507C19.7344 41.2507 23.0678 38.6882 23.0678 35.1257Z" stroke="#FC00FF" stroke-width="2" stroke-linecap="round" stroke-linejoin="round"/>
<path d="M23.065 29.3958C23.065 30.4375 22.7734 31.3958 22.2734 32.2291C21.0442 34.2499 18.5233 35.5208 15.6067 35.5208C12.69 35.5208 10.1692 34.2291 8.93999 32.2291C8.43999 31.3958 8.14844 30.4375 8.14844 29.3958C8.14844 27.6041 8.98173 26 10.3151 24.8333C11.6692 23.6458 13.5233 22.9375 15.5858 22.9375C17.6483 22.9375 19.5026 23.6666 20.8567 24.8333C22.2317 25.9791 23.065 27.6041 23.065 29.3958Z" stroke="#FC00FF" stroke-width="2" stroke-linecap="round" stroke-linejoin="round"/>
<path d="M23.0678 29.3958V35.125C23.0678 38.7083 19.7344 41.25 15.6302 41.25C11.5261 41.25 8.17188 38.6875 8.17188 35.125V29.3958C8.17188 25.8125 11.5052 22.9167 15.6302 22.9167C17.6927 22.9167 19.547 23.6458 20.9011 24.8124C22.2345 25.9791 23.0678 27.6041 23.0678 29.3958Z" stroke="#FC00FF" stroke-width="2" stroke-linecap="round" stroke-linejoin="round"/>
<path d="M46.5021 22.8541V27.1459C46.5021 28.2917 45.5854 29.2291 44.4187 29.2708H40.3354C38.0854 29.2708 36.0229 27.625 35.8354 25.375C35.7104 24.0625 36.2104 22.8333 37.0854 21.9791C37.8562 21.1875 38.9187 20.7292 40.0854 20.7292H44.4187C45.5854 20.7709 46.5021 21.7083 46.5021 22.8541Z" stroke="#FC00FF" stroke-width="2" stroke-linecap="round" stroke-linejoin="round"/>
<path d="M4.83594 21.875V17.7083C4.83594 12.0417 8.25261 8.08333 13.5651 7.41666C14.1068 7.33333 14.6693 7.29166 15.2526 7.29166H34.0026C34.5443 7.29166 35.0651 7.31247 35.5651 7.39581C40.9401 8.02081 44.4193 12 44.4193 17.7083V20.7292H40.0859C38.9192 20.7292 37.8567 21.1875 37.0859 21.9791C36.2109 22.8333 35.7109 24.0625 35.8359 25.375C36.0234 27.625 38.0859 29.2708 40.3359 29.2708H44.4193V32.2917C44.4193 38.5417 40.2526 42.7083 34.0026 42.7083H28.7943" stroke="#FC00FF" stroke-width="1.5" stroke-linecap="round" stroke-linejoin="round"/>
</svg>

<svg width="51" height="50" viewBox="0 0 51 50" fill="none" xmlns="http://www.w3.org/2000/svg"><path d="M23.068 35.126v4.229c0 3.583-3.334 6.48-7.438 6.48-4.104 0-7.458-2.897-7.458-6.48v-4.23c0 3.584 3.333 6.126 7.458 6.126 4.104 0 7.438-2.563 7.438-6.125z" stroke="#FC00FF" stroke-width="2" stroke-linecap="round" stroke-linejoin="round"/><path d="M23.065 29.396c0 1.041-.292 2-.792 2.833-1.229 2.02-3.75 3.292-6.666 3.292-2.917 0-5.438-1.292-6.667-3.292a5.465 5.465 0 01-.792-2.833c0-1.792.834-3.396 2.167-4.563 1.354-1.187 3.208-1.895 5.27-1.895 2.063 0 3.918.729 5.272 1.895 1.375 1.146 2.208 2.771 2.208 4.563z" stroke="#FC00FF" stroke-width="2" stroke-linecap="round" stroke-linejoin="round"/><path d="M23.068 29.396v5.729c0 3.583-3.334 6.125-7.438 6.125-4.104 0-7.458-2.563-7.458-6.125v-5.73c0-3.582 3.333-6.478 7.458-6.478 2.063 0 3.917.729 5.271 1.895 1.334 1.167 2.167 2.792 2.167 4.584zm23.434-6.542v4.292c0 1.146-.917 2.083-2.083 2.125h-4.084c-2.25 0-4.312-1.646-4.5-3.896a4.184 4.184 0 011.25-3.396 4.152 4.152 0 013-1.25h4.334c1.166.042 2.083.98 2.083 2.125z" stroke="#FC00FF" stroke-width="2" stroke-linecap="round" stroke-linejoin="round"/><path d="M4.836 21.875v-4.167c0-5.666 3.417-9.625 8.73-10.291a11.089 11.089 0 011.687-.125h18.75c.541 0 1.062.02 1.562.104C40.94 8.02 44.42 12 44.42 17.708v3.021h-4.333c-1.167 0-2.23.459-3 1.25a4.184 4.184 0 00-1.25 3.396c.187 2.25 2.25 3.896 4.5 3.896h4.083v3.02c0 6.25-4.166 10.417-10.416 10.417h-5.209" stroke="#FC00FF" stroke-width="1.5" stroke-linecap="round" stroke-linejoin="round"/></svg>
